public/arrow.svg

<svg fill="none" height="32" viewBox="0 0 14 32" width="14" xmlns="http://www.w3.org/2000/svg"><path d="m10.6721 1.60005c.3314-.44181.2419-1.068613-.1999-1.400013-.4418-.331398-1.0686-.2418939-1.4.199913zm-1.11643 30.34865c.52393.1746 1.09023-.1086 1.26483-.6326l2.8453-8.5384c.1746-.5239-.1086-1.0902-.6326-1.2648-.5239-.1746-1.0902.1086-1.2648.6326l-2.52916 7.5896-7.58969-2.5291c-.52396-.1746-1.090256.1086-1.264857.6326-.174601.5239.10861 1.0902.632567 1.2648zm-.48347-31.54875c-3.18739 4.24929-4.26779 9.88255-4.04381 15.45275.22438 5.5802 1.76069 11.2189 3.94903 15.5946l1.78878-.8946c-2.06261-4.1243-3.52652-9.4856-3.73942-14.7804-.21331-5.3048.83195-10.42154 3.64532-14.17225z" fill="#000"/></svg>

<svg width="14" height="32" viewBox="0 0 14 32" fill="none" xmlns="http://www.w3.org/2000/svg">
<path d="M10.6721 1.60005C11.0035 1.15824 10.914 0.531437 10.4722 0.200037C10.0304 -0.131361 9.4036 -0.0418569 9.0722 0.39995L10.6721 1.60005ZM9.55567 31.9487C10.0796 32.1233 10.6459 31.8401 10.8205 31.3161L13.6658 22.7777C13.8404 22.2538 13.5572 21.6875 13.0332 21.5129C12.5093 21.3383 11.943 21.6215 11.7684 22.1455L9.23924 29.7351L1.64955 27.206C1.12559 27.0314 0.559294 27.3146 0.384693 27.8386C0.210092 28.3625 0.493303 28.9288 1.01726 29.1034L9.55567 31.9487ZM9.0722 0.39995C5.88481 4.64924 4.80441 10.2825 5.02839 15.8527C5.25277 21.4329 6.78908 27.0716 8.97742 31.4473L10.7662 30.5527C8.70359 26.4284 7.23968 21.0671 7.02678 15.7723C6.81347 10.4675 7.85873 5.35076 10.6721 1.60005L9.0722 0.39995Z" fill="black"/>
</svg>
